X: 1
T: Vrni se Vrni
O: Makedonija
Z: John Chambers <jc@trillian.mit.edu>
N: Handwritten MS labelled "CRH" (Cal Howard)
M: 2/4
L: 1/16
K: C
"inst"\
|: "C"cddc BcdB | "Am"BccB ABcA | "Em"~B2BA GABG | "G7"~A2GF "C"EFG2 |
| "Dm"D2 ~G4 F2 | "G7"~E3D DCDE | "C"C2z2 GFED |1 Cz EF GABc :|2 "C"~C2CG, C2z2 ||
"vocal"\
[| "C"[C2G,2] [E4C4] [F2D2] | [G4E4] [G4E4] | "F"[A2F2] [A4F4] [A2F2] | "C"[G2E2][=F2^D2] [G4E4] \
| [G2E2] [A4F4] [B2F2] | [c4E4] [d4G4] | "C"[c8-E8-] | [c6E6] z2 ||
|: "F"[c2A2] [d4A4] [c2A2] | [B4F4] [A4F4] | "C"[G2E2] [G4E4] [F2D2] | [E4C4] [D2G,2][C2G,2] \
| "G7"[D2B,2] [G4D4] [F2D2] | [E4B,4] [D4B,4] |1 "C"[C8C8]- | [C6C6] z2 :|2 "C"C4 GFED | ~C2CG, C2z2 |]
